gama.ui.shared/icons_svg/dark/experiment/experiment.simulations.kill.svg

<svg height="25" viewBox="-238.774 -3215.705 25 25" width="25" xmlns="http://www.w3.org/2000/svg"><g fill="none"><path d="m-218.11414-3215.205h-16.32c-2.12076 0-3.84 1.719-3.84 3.84v16.32c0 2.1207 1.71924 3.84 3.84 3.84h16.32c2.12078 0 3.84-1.7193 3.84-3.84v-16.32c0-2.121-1.71922-3.84-3.84-3.84z" fill="#666"/><path d="m-218.11414-3215.205h-16.32c-2.12076 0-3.84 1.719-3.84 3.84v16.32c0 2.1207 1.71924 3.84 3.84 3.84h16.32c2.12078 0 3.84-1.7193 3.84-3.84v-16.32c0-2.121-1.71922-3.84-3.84-3.84z" stroke="#fff" stroke-linecap="round" stroke-linejoin="round" stroke-width=".25"/><path d="m-238.27414-3215.205h24v24h-24z"/><path d="m-230.00245-3194.924-1.81825-1.8182-1.81827 1.8182-.60609-.606 1.81826-1.8183-1.81826-1.8183.60609-.6061 1.81827 1.8183 1.81825-1.8183.60609.6061-1.81826 1.8183 1.81826 1.8183z" fill="#ff0919"/><path d="m-230.00245-3194.924-1.81825-1.8182-1.81827 1.8182-.60609-.606 1.81826-1.8183-1.81826-1.8183.60609-.6061 1.81827 1.8183 1.81825-1.8183.60609.6061-1.81826 1.8183 1.81826 1.8183z" stroke="#9f4c4b" stroke-linecap="round" stroke-linejoin="round" stroke-width=".25"/><path d="m-226.82628-3205.5577c-2.97426-.3586-4.59439-3.7449-2.92695-6.2556 2.38551-3.5947 7.82623-1.537 7.49506 2.8397-.13037 1.7326-1.37096 2.6936-1.68006 4.2601-.72437 3.6681 3.86581 5.4302 5.91804 2.4235 1.39514-2.045-.06833-4.9173-2.52428-5.094-.31646-.022-.87367.142-.97145-.269-.11038-.4637.40582-.492.72648-.491 3.05522.0126 5.04647 3.3138 3.59877 6-2.05749 3.8195-7.92401 2.249-7.56445-2.2005.18819-2.3265 2.41705-3.5399 1.61592-6.122-.89154-2.8702-4.607-3.337-6.08626-.7349-1.1691 2.0564.21343 4.6564 2.55899 4.8972-.16823-.3448-.51727-.6518-.6981-.9798-.22289-.4038.25653-.8474.64867-.4174.42686.4689.7738 1.0954 1.21432 1.5674.10934.1978.05678.404-.06518.5826-.56668.3269-1.13126.9777-1.68637 1.2804-.31856.1736-.71912-.1113-.5488-.4667.11775-.246.96933-.757.97775-.82z" fill="#c0e0ff"/></g></svg>

<?xml version="1.0" encoding="UTF-8" standalone="no"?>
<!DOCTYPE svg PUBLIC "-//W3C//DTD SVG 1.1//EN" "http://www.w3.org/Graphics/SVG/1.1/DTD/svg11.dtd">
<svg xmlns="http://www.w3.org/2000/svg" xmlns:xl="http://www.w3.org/1999/xlink" version="1.1" xmlns:dc="http://purl.org/dc/elements/1.1/" viewBox="-238.77414 -3215.705 25 25" width="25" height="25">
  <defs/>
  <g id="SOURCES" stroke-opacity="1" fill="none" stroke="none" fill-opacity="1" stroke-dasharray="none">
    <title>SOURCES</title>
    <g id="SOURCES_Dark">
      <title>Dark</title>
      <g id="Graphic_10889">
        <path d="M -218.11414 -3215.205 L -234.43414 -3215.205 C -236.5549 -3215.205 -238.27414 -3213.486 -238.27414 -3211.365 L -238.27414 -3195.045 C -238.27414 -3192.9243 -236.5549 -3191.205 -234.43414 -3191.205 L -218.11414 -3191.205 C -215.99336 -3191.205 -214.27414 -3192.9243 -214.27414 -3195.045 L -214.27414 -3211.365 C -214.27414 -3213.486 -215.99336 -3215.205 -218.11414 -3215.205 Z" fill="#666"/>
        <path d="M -218.11414 -3215.205 L -234.43414 -3215.205 C -236.5549 -3215.205 -238.27414 -3213.486 -238.27414 -3211.365 L -238.27414 -3195.045 C -238.27414 -3192.9243 -236.5549 -3191.205 -234.43414 -3191.205 L -218.11414 -3191.205 C -215.99336 -3191.205 -214.27414 -3192.9243 -214.27414 -3195.045 L -214.27414 -3211.365 C -214.27414 -3213.486 -215.99336 -3215.205 -218.11414 -3215.205 Z" stroke="white" stroke-linecap="round" stroke-linejoin="round" stroke-width=".25"/>
      </g>
      <g id="Graphic_10888">
        <rect x="-238.27414" y="-3215.205" width="24" height="24" stroke="gray" stroke-opacity="0" stroke-linecap="round" stroke-linejoin="round" stroke-width=".25"/>
      </g>
      <g id="Graphic_10887">
        <path d="M -230.00245 -3194.924 L -231.8207 -3196.7422 L -233.63897 -3194.924 L -234.24506 -3195.53 L -232.4268 -3197.3483 L -234.24506 -3199.1666 L -233.63897 -3199.7727 L -231.8207 -3197.9544 L -230.00245 -3199.7727 L -229.39636 -3199.1666 L -231.21462 -3197.3483 L -229.39636 -3195.53 L -230.00245 -3194.924 Z" fill="#ff0919"/>
        <path d="M -230.00245 -3194.924 L -231.8207 -3196.7422 L -233.63897 -3194.924 L -234.24506 -3195.53 L -232.4268 -3197.3483 L -234.24506 -3199.1666 L -233.63897 -3199.7727 L -231.8207 -3197.9544 L -230.00245 -3199.7727 L -229.39636 -3199.1666 L -231.21462 -3197.3483 L -229.39636 -3195.53 L -230.00245 -3194.924 Z" stroke="#9f4c4b" stroke-linecap="round" stroke-linejoin="round" stroke-width=".25"/>
      </g>
      <g id="Graphic_10886">
        <path d="M -226.82628 -3205.5577 C -229.80054 -3205.9163 -231.42067 -3209.3026 -229.75323 -3211.8133 C -227.36772 -3215.408 -221.927 -3213.3503 -222.25817 -3208.9736 C -222.38854 -3207.241 -223.62913 -3206.28 -223.93823 -3204.7135 C -224.6626 -3201.0454 -220.07242 -3199.2833 -218.02019 -3202.29 C -216.62505 -3204.335 -218.08852 -3207.2073 -220.54447 -3207.384 C -220.86093 -3207.406 -221.41814 -3207.242 -221.51592 -3207.653 C -221.6263 -3208.1167 -221.1101 -3208.145 -220.78944 -3208.144 C -217.73422 -3208.1314 -215.74297 -3204.8302 -217.19067 -3202.144 C -219.24816 -3198.3245 -225.11468 -3199.895 -224.75512 -3204.3445 C -224.56693 -3206.671 -222.33807 -3207.8844 -223.1392 -3210.4665 C -224.03074 -3213.3367 -227.7462 -3213.8035 -229.22546 -3211.2014 C -230.39456 -3209.145 -229.01203 -3206.545 -226.66647 -3206.3042 C -226.8347 -3206.649 -227.18374 -3206.956 -227.36457 -3207.284 C -227.58746 -3207.6878 -227.10804 -3208.1314 -226.7159 -3207.7014 C -226.28904 -3207.2325 -225.9421 -3206.606 -225.50158 -3206.134 C -225.39224 -3205.9362 -225.4448 -3205.73 -225.56676 -3205.5514 C -226.13344 -3205.2245 -226.69802 -3204.5737 -227.25313 -3204.271 C -227.57169 -3204.0974 -227.97225 -3204.3823 -227.80193 -3204.7377 C -227.68418 -3204.9837 -226.8326 -3205.4947 -226.82418 -3205.5577 Z" fill="#c0e0ff"/>
      </g>
    </g>
  </g>
</svg>
